Sources/FrostedUI/Resources/Icons.xcassets/volumeOff20.imageset/volume-off-20.svg

<svg width="20" height="20" viewBox="0 0 20 20" fill="none" xmlns="http://www.w3.org/2000/svg" data-fui-icon="true">
  <path
    d="M8.58008 3.00867C9.5514 2.16703 11.0624 2.85721 11.0625 4.14246V15.8573C11.0625 17.1427 9.55143 17.8328 8.58008 16.9911L5.83887 14.6151C5.52071 14.3394 5.11339 14.1874 4.69238 14.1874H3.4375C2.33293 14.1874 1.4375 13.2919 1.4375 12.1874V7.81238C1.43758 6.70787 2.33298 5.81238 3.4375 5.81238H4.69238C5.11342 5.81238 5.5207 5.66039 5.83887 5.38464L8.58008 3.00867ZM6.82129 6.51843C6.2304 7.03054 5.47431 7.31238 4.69238 7.31238H3.4375C3.1614 7.31238 2.93758 7.5363 2.9375 7.81238V12.1874C2.9375 12.4635 3.16136 12.6874 3.4375 12.6874H4.69238C5.47428 12.6874 6.23041 12.9693 6.82129 13.4813L9.5625 15.8573V4.14246L6.82129 6.51843ZM17.5947 7.5946C17.8876 7.3018 18.3624 7.3018 18.6553 7.5946C18.9481 7.88747 18.9481 8.36225 18.6553 8.65515L17.3105 9.99988L18.6553 11.3446C18.9481 11.6375 18.9481 12.1123 18.6553 12.4052C18.3624 12.698 17.8876 12.698 17.5947 12.4052L16.25 11.0604L14.9053 12.4052C14.6124 12.698 14.1376 12.698 13.8447 12.4052C13.5519 12.1123 13.5519 11.6375 13.8447 11.3446L15.1895 9.99988L13.8447 8.65515C13.5519 8.36225 13.5519 7.88747 13.8447 7.5946C14.1376 7.3018 14.6124 7.3018 14.9053 7.5946L16.25 8.93933L17.5947 7.5946Z"
    fill="currentColor"
  />
</svg>

<svg xmlns="http://www.w3.org/2000/svg" width="20" height="20" fill="none" data-fui-icon="true" viewBox="0 0 20 20"><path fill="currentColor" d="M8.58 3.009c.971-.842 2.482-.152 2.483 1.133v11.715c0 1.286-1.512 1.976-2.483 1.134L5.84 14.615a1.75 1.75 0 0 0-1.147-.428H3.437a2 2 0 0 1-2-2V7.812a2 2 0 0 1 2-2h1.255c.421 0 .829-.152 1.147-.427zm-1.759 3.51a3.25 3.25 0 0 1-2.129.793H3.437a.5.5 0 0 0-.5.5v4.375a.5.5 0 0 0 .5.5h1.255c.782 0 1.538.282 2.13.794l2.74 2.376V4.142zm10.774 1.076a.75.75 0 0 1 1.06 1.06L17.311 10l1.344 1.345a.75.75 0 0 1-1.06 1.06L16.25 11.06l-1.345 1.345a.75.75 0 0 1-1.06-1.06L15.19 10l-1.345-1.345a.75.75 0 0 1 1.06-1.06l1.345 1.344z"/></svg>
